X: 501
T: Petronella
R: Reel
O: Scotland, 1817
B: (Nathanial) Gow's Repository, Part Fourth, 1817
M: 4/4
K: D
Z: 1997 by John Chambers <jc:trillian.mit.edu>
dA \
| "D"F2AF "A7"E2AE | "D"D2D2 D2FA | d2cd e2d2 | "A7"cdec ABAG |
| "D"F2AF "A7"E2AE | "D"D2D2 D2FA | d2cd "A7"e2c2 | "D"d2-d2- d2 :|
|: dA \
| "D"F2fd A2af | "Em"g2gf edcB | "A7"A2ec Aceg | "D"f2fd AdAF |
| "D"D2fd A2af | "Em"g2gf edcB | "A7"A2ec Agec | "D"d2-d2- d2 :|

%%sep 1 1 500

